X:1
T:Trio Sonata (2nd Mov.)
T:Trio Sonata I (2nd Mov.)
T:C.P.E. Bach
C:C.P.E. Bach
%%score 1 2 { 3 | 4 }
L:1/8
Q:1/8=88
M:2/4
K:C
V:1 treble nm="Violin" snm="Vln."
V:2 treble nm="Violin" snm="Vln."
V:3 treble nm="Piano" snm="Pno."
V:4 bass 
V:1
"^Andante" z | z4 | z4 | z4 | z4 | z4 | z4 | z4 | z3"_espr."!p! ue | (dc) (d3/2e/4f/4) | %10
 !tenuto!e!tenuto!A!<(! (a2!<)! | a)(g/>f/) f!>(!(e/>d/)!>)! | (3(c/B/A/)A z (c/>E/) | %13
 (EF) z (B/>^D/) | (^DE) z ((A/>^C/)) | D !tenuto!d2 (c/4B/4B/4^G/4) | (A3/2B/4c/4) B(^G/A/) | %17
!<(! (A/B/)(B/c/) (c/d/)(d/e/)!<)! | (e/f/) (f2 e/d/) | (Tc3/2B/4c/4) (dc) | %20
!>(!(({cd))} (cB) z3/4 G/<(A/_B/4)!>)! | (_BA) z3/4 =B/<(A/G/4) | (GF) z3/4 F/<(G/A/4) | %23
 (AG) z3/4 A/<(G/F/4) | (FE) z3/4 G/<((A/G/4)) | ^F2 z3/4 =F/<(G/F/4) | E2 z3/4 E/<(F/E/4) | %27
 D2 z2 | z7/4 F/4 ((F"_cresc."E/>).G/) | ((GF/>).A/) (G/F)E/ | (E/D/) z/ D/ ((DC/>)._E/) | %31
 ((_ED/>)).F/"^rit." (F/E/)(G/D/) |!>(! (D2 !fermata!C2)!>)! | %33
[Q:1/4=71]"^Adagio"[Q:1/8=78] [_Ec]2 z7/4 C/4 |!>(! (C2 !fermata!B,2)!>)! | z4 | z4 | z4 | z4 | %39
!p! A,2 A2 | G,"_cresc."(A,/>B,/) (C/>E/)(G/>c/) | (D/>A/)(G/>F/) (E/>D/)(C/>B,/) | C z2 z | %43
 z2 z/!mf! (c/d/e/) | (ed/>c/) (cB/>d/) | c2 z2 | z!p! (A/>A,/) D z | z (G/>G,/) C z | %48
 z (f/>A/) _B z | z (g/>B/)!<(! ^c(a!<)! |!mf! a)(g/4f/4e/4d/4) (g3/2a/4_b/4) | %51
 !tenuto!a!tenuto!d (d'2 | d')(c'/>_b/) b(a/>g/) | (3(f/e/d/)d z2 | z/ (d/e/f/) (a/g)f/ | %55
 (f/e/^d/e/) (e2 |!<(! e/)(e/c'/b/)!>(! (a/g/f/e/)!<)!!>)! | (e/d/^c/d/) (d2 | %58
!<(! d/)(d/b/a/)!>(! (^g/f/e/d/)!<)!!>)! | ((c/a/))(a a/)(e/d/B/) | %60
"_dim.""_dim."({Bc)d} (Tc4{B)c} | !tenuto!B!tenuto!E!p! ((e2 | e/>)g/)(f/>e/) (dT^c)({Bc)} | %63
 (^cd/e/) ((f2 | f/>)a/)(g/>f/)"_cresc." (e(T^d){^c)d} | (^de/)^f/ ((g2 | g/>).g/)(^f/>e/) ((f2 | %67
 f/>).^f/)(e/>^d/) ((e2 | e/>)d/)((c/>B/))"_dim.""_dim." ((BA/>))G/ | ((G^F/>)A/)!p! ((AG/>)B/) | %70
 ((BA/>)g/) (g/^f)e/ | (e/^d/) z/!pp! d/ (d^c/>d/) |"^rit." (^de/>)B/ (A/^F/)(G/E/) | %73
!>(! (TE^D) z!mf! B!>)! |"^a tempo"[Q:1/8=88] (AG) (A3/2B/4c/4) | !tenuto!B!tenuto!E ((e2 | %76
 e))(d/>c/) c(B/>A/) | (3(G/^F/E/)E z (g/>B/) | (Bc) z (^f/>A/) | (AB) z (e/>^G/) | %80
 B(a/>A/) !tenuto!d!tenuto!d | (d3/2e/4f/4) (e/d/c/B/) | A2 (B3/2c/4d/4) | c2 z/ (A/B/c/) | %84
 (cB/>A/) (A^G/>B/) | A2 z2 | z (f/>A/) (AB) | z (e/>E/) A z | z (d/>D/) (G2 | G/>)G/(F/>E/) F2 | %90
 z3/4 A/<(G/F/4) G2 | z3/4 _B/<(A/^G/4) A2 | z/ (a/g/f/) (e/^d/) z/ A/ | %93
 (((AG/>))B,/) ((DC/>).C/) | ((ED/>)F/)!>(! ((E/D))C/!>)! | (C/B,/) z/!pp! A,/ ((A,^G,/>)B,/) | %96
"^rit."!<(! (B,/A,)!mf!A,/ (G,>_B,)!<)! |!>(! ((_B,2 !fermata!A,2))!>)! | %98
!f![Q:1/4=71]"^(Adagio)"[Q:1/8=78] [CA]2 z7/4!pp! A,/4 |!>(! (A,2 !fermata!^G,2)!>)! | z4 | z4 | %102
 z4 | z4 |"_piu lento"!p!"^piu lento" F ^F2!<(! (G!<)! | G) ^G2 (A | A)(G/4F/4E/4D/4)!>(! CB,!>)! | %107
 A,!f!"^rit." c2 c | %108
[Q:1/4=71]"^Adagio"[Q:1/8=72] !tenuto!c!tenuto!A"_dim." (!fermata!T^G2{!fermata!^F)!fermata!G} | %109
!>(! !fermata!A2 z2!>)! |] %110
V:2
!p! ue |"_espr." (dc) (d3/2e/4f/4) | !tenuto!e!tenuto!A!<(! (a2!<)! | a)(g/>f/) f!>(!(e/>d/)!>)! | %4
 (3(c/B/A/)A z (c/>E/) | (EF) z (B/>^D/) | (^DE) z (A/>^C/) | D !tenuto!d2 (c/4B/4B/4^G/4) | %8
 (A3/2B/4c/4) B z | z A (B3/2c/4d/4) | c2!<(! z/ (A/B/c/)!<)! | (cB/>A/) (A!>(!^G/>B/)!>)! | %12
 A2 z2 | z (f/>A/) (AB) | z (e/>E/) A z | z4 | z (A ^G)(B/c/) |!<(! (c/d/)(d/e/) (e/f/)(f/g/)!<)! | %18
 (g/a/) (a2 g/f/) | (Te3/2d/4e/4) (fe) |!>(!({ef)} (ed) ((g2!>)! | g/>).g/)(f/>e/) (d^c) | %22
 (^cd/e/) ((f2 | f/>).f/)(e/>d/) (cB) | (Bc/d/) ((e2 | e/>).e/)(d/>^c/) ((d2 | %26
 d/>).d/)(c/>B/) ((c2 | c/>)).c/(B/>A/) ((G^F/>)d/) | ((cB/>)d/)"_cresc." ((dc/>).e/) | %29
 ((ed/>).f/) (e/d)c/ | (c/B/) z/ F/ ((F_E/>).G/) | ((GF/>)._A/)"_rit.""^rit." (A/G/)(_e/!f!B/) | %32
!>(! (B2 !fermata!c2)!>)! |!f! ((^f/>c'/))c' z3/4!pp! A/<(A/^F/4) |!>(! (^F2 !fermata!G2)!>)! | %35
!p! (A2 A/)(f/e/d/) | (cB) (c>G) | (_A G2) (TF{E)F} | (E/>F/)G z2 | z4 | z4 | z2 z!mf! ug | %42
 (fe) (f3/2g/4a/4) | !tenuto!g!tenuto!c (c'2 | c')(b/>a/) a(g/>f/) | (3(e/d/)c/c z!p! (e/>^G/) | %46
 (^GA) z (d/>^F/) | (^FG) z (c/>E/) | F z z (_b/>d/) | e z z!<(! (e/>G/)!<)! | F z z2 | %51
 z2 z/!mf! (d/e/f/) | f(e/>d/) d(^c/>e/) | d(a/>^c/) d(f/>A/) | (B4 | (B2) B)(e/>^G/) | (A4 | %57
 (A2) A)(d/>^F/) |!<(! (^G/d/)(d/c/)!>(! (B/d/c/B/)!<)!!>)! | (A/c/)(c c/)(c/B/^G/) | %60
"_dim."({^GA)B} (TA4{G)A} | ^G2 z3/4!p! G/<(A/_B/4) | (_BA) z3/4 B/<(A/G/4) | %63
 (GF) z3/4 A,/<(D/F/4) | A2 z3/4"_cresc." c/<(B/A/4) | (AG) z3/4 B/<(c/B/4) | A2 z3/4 A/<(B/A/4) | %67
 G2 z3/4 G/<((^F/E/4)) | (c/>B/)((A/>G/))"_dim." G(^F/>E/) | (E^D/>^F/)!p! (FE/>G/) | %70
 (G^F/>B/) (B/A)G/ | (G/^F/) z/!pp! b/ (b^a/>=a/) |"_rit.""^rit." (a^g/>)=g/ (^f/^d/)(e/G/) | %73
!>(! (TG^F) z2!>)! |"^a tempo" z4 | z4 | z4 | z4 | z4 | z4 | z4 | z3!mf! ue | (dc) (d3/2e/4f/4) | %83
 !tenuto!e!tenuto!A (a2 | a)(g/>f/) f(e/>d/) | (3(c/B/A/)A z (c'/>e/) | (ef) z (b/>^d/) | %87
 (^de) z (a/>^c/) | (^c(d d/>).d/)(c/>d/) | ((e2 e/>).e/)(d/>e/) | ((f2 f/>).f/)(e/>f/) | %91
 (g2 g)(a/>^c/) | (^cd) z (c'/>^d/) | ((^de/>)^G/) ((BA/>).A/) | ((cB/>)d/)!>(! (c/B)A/!>)! | %95
!>(! (A/^G/) z/!pp! F/ (FE/>D/)!>)! |"^rit."!<(! (D/C)!mf!(B,/ (B,/)G/)(E/^C/)!<)! | %97
!>(! (^C2 !fermata!D2)!>)! |!f! (^d/>a/)!tenuto!a z3/4!pp! A/<(A/^D/4) | %99
!>(! (^D2 !fermata!E2)!>)! |!p!"_espr." f3 (e/4d/4c/4B/4) | (A^G) (A3/2B/4c/4) | (e/d/) (c2 B) | %103
 (c/>d/)e z2 | z4 | z4 | z4 | z!f!"^rit." a2 a | %108
 !tenuto!a!tenuto!A"_dim." ((!fermata!TB2({!fermata!A))!fermata!B)} |!>(! !fermata!A2 z2!>)! |] %110
V:3
 (C/E/) | (B,/E/A,/E/) (A,/F/D/^G,/) | (B,/A,/C/F/!<(! E/c/A/G/)!<)! | %3
 (F/A/B,/A/)!>(! (B,/A/^G/E/)!>)! | (A/c/A/E/) ((CE)) | z/ (C/F/D/) (B,B) | z/ (B,/E/^C/) (A,A) | %7
 z/ (A,/D/B,/) (^G,/F/E/D/) | (C/B,/A,/^F/) (([^G,B,]E)) | (F/A/E/A/) ([B,DF]/A/^G/B,/) | %10
 (C/E/A/B/) (cE) | (A/G/D/F/) (B,/C/[B,D]/^G/) | ([CA]/c/A/E/) (CE) | z/ (C/c/A/) (F/D/B,) | %14
 z/ (B,/B/G/) (E/^C/A,) | z/ (A,/A/D/) (B/^G/E/D/) | (C/A,/^F) (B,/^G,/E) | %17
 z/!<(! (E/A,/A/) z/ (A/D/d/)!<)! | z/ (D/d/F/) (D/G/G,/G/) | (G,/E/C/B,/) (A,/B,/C/A/) | %20
!>(! (G/A/B/d/) (GF)!>)! | (E/F/G/E/) (AE) | ([EG][DF]) (A/F/E/D/) | ([Fd]G) (D/E/F/D/) | %24
 ([DF][CE]) (GE) | [C^F]2 (=FD) | [B,E]2 (EC) | z/ (A,/D/C/) B,([A,D] | %28
 (D/)G,/D/F/ F/"_cresc."G,/E/(G/ | G/)G,/F/A/ G/B,/C/E/) | (E/D/B,/G,/) ([DFG][C_E]) | %31
 ([_EG][DF]/[B,D]/) ([B,D]/[C=E]/)([CE]/[DF]/) |!f!!>(! (([DF]2 !fermata![C_E]2))!>)! | %33
!f! [C^F](C/F/ c)!pp![CF] |!>(! ([C^F]2 !fermata![B,G]2)!>)! | z!p! (A, DA,) | (D_A, G,) z | %37
 (CB, CD) | (C/>D/)E z/[K:bass] (G,/C/B,/) | (([F,A,]2 [F,A,]/)F/E/D/) | %40
 (C/B,/D/G,/)"_cresc." (G,C) |[K:treble] [A,D]2 B,!mf![G,G] | (G,/G/C/G/) (C/F/B,/G,/) | %43
 (D/C/E/A/) (G/c/G/C/) | (A/c/D/c/) (D/c/B/G/) | (cG E) z | z/!p!!>(! (E/e/c/ A/^F/D)!>)! | %47
 z/ (D/d/_B/ G/E/C) | z/ (C/c/)F/ (E/G/D/G,/) | (^C/E/G/D/)!<(! (E/G/A,/E/)!<)! | %50
!mf! (F/D/A,/F/) (D/G,/G/^C/) | (E/D/F/_B/) (A/d/A/D/) | (_B/d/E/d/) (E/d/^c/A/) | %53
 (d/_B/A/G/) (A/d/F/A/) | (D/F/B,/D/) (F/d/D/G/) | z/ (E/G/E/) (C/D/C/B,/) | %56
 (A,/^G,/A,/D/) (C/E/A/G/) | (F/B,/A/F/ D/E/D/C/) | (B,/E/[B,^G]/[CA]/ [DB]) z | %59
 (A/E/[CA]/[DB]/ [Ec]) z |"_dim." (A/C/A,/B,/ C)!tenuto![C^FA] | ([B,E^G]/^F/G/B/)!p! E=F | %62
 (E/F/G/E/) (AG) | (([EG][DF])) (F/d/A/F/) | D[A,F]"_cresc." [B,^F][FA] | ([^FA][EG]) (BG) | %66
 [EA]2 (A^F) | [B,G]2[K:bass] z/ (G,/B,/E/) | (C/E,/A,/B,/"_dim." C)C | %69
 (B,/C/A,/^F,/!p! ^D,/C/B,/G,/) |[K:treble] (E/^C/^D/B,/ C/D/E/G/) | %71
 (G/^F/^D/B,/)!pp! (B/F/G/[FB]/) | ([EB]/c/B/E/) (^D/^F/[EG]/^C/) | ([EG][^D^F]) z"_cresc." B, | %74
!mf!"^a tempo\n" (C/E/B,/E/) (C/E/^D/C/) | (B,/^F/E/A/ G/c/B/E/) | (c/E/B/A/) (A/^D/G/^F/) | %77
 (G/B,/E) z [GB] | z/ (G/c/A/) (^F^f) | z/ (^F/B/^G/) (Ee) | z/ (E/A/G/) (^F/D/^G/A/) | [EB]^G AE | %82
 (F/A/E/A/) ([B,DF]/A/^G/B,/) | (C/E/A/B/ c)E | (F/E/D/F/) (B,/C/[B,D]/^G/) | [CA]/(c/A/E/ C)E | %86
 z/ (C/c/A/ F/D/B,) | z/!>(! (B,/B/G/ E/^C/A,)!>)! | z/ (A,/A/)D/ (G/F/E/D/) | %89
 (C/E/A/G/) ([A,F]A) | (D/F/_B/A/) [_B,G]2 | (_B,/^C/E/_B/) A2 | A2 (CA) | (A^G/)B,/ (D/F/E/C/) | %94
 (E/G/F/^G,/)!>(! (E/[C^F]/) z!>)! |[K:bass] ([^CE]/B,/^G,/E,/)!pp! (D/C/B,/G,/) | %96
"^rit."!<(! (B,/A,/E,/A,/)!mf! (G,[G,_B,])!<)! | ([E,G,_B,]2 !fermata![F,A,]2) | %98
[K:treble]!f! [A,^D](A,/D/ A)!pp![A,D] |!>(! ([A,^D]2 !fermata![^G,E]2)!>)! | z!p! (F GF) | %101
 (F/B,/[E^G]/F/) ([EA]/^D/E/A,/) | [A,F](([A,E]/^F,/)) (G,/B,/E/D/) | ([CE]/>B,/C) z A | %104
"^piu lento\nespr.\n" [A,F]([A,D^F]!<(! [DA])!>(![DG]!<)!!>)! |!<(! [DFG][E^G]!>(! B[EA]!<)!!>)! | %106
 [FAf]d/B/ ([EA][B,D^G]) | [A,CA]!f!"^rit." [CAc]2 [Ac] | [EAc]2"_dim." !fermata![DE^G]2 | %109
!>(! !fermata![CEA]2 z2!>)! |] %110
V:4
 z | !tenuto!A,,!tenuto!A,, !tenuto!B,,!tenuto!B,, | C,2 z C, | %3
 !tenuto!D,!tenuto!D, !tenuto!E,!tenuto!E, | (A,,C,/>E,/) A,2 | z A, ^G,2 | z G, ^F,2 | z F, E,E, | %8
 z ^D, (E,/=D,/C,/B,,/) | A,,A,, A,,A,, | A,,2 z C, | D,D, E,E, | (A,,C,/>E,/) A,2 | z A, ^G,2 | %14
 z G, ^F,2 | z F, E,E, | z (^D, E,) z | z4 | z B,, B,,B,, | C,C, ^F,,F,, | G,,(G,/>F,/) E,D, | %21
 ^C,C, A,,A,, | D,D,, z C, | B,,B,, G,,G,, | C,C,, z ((C,/>B,,/)) | A,,A,, B,,B,, | %26
 ^G,,G,, A,,A,, | ^F,,F,, D,,D,, | G,,G,, G,,G,, | G,,G,, (G,,^F,,) | G,,G,, G,,G,, | %31
 G,,G,, G,,G,, | _A,,4 | _A,,/(B,,/[A,,_A,]/E,/ A,,)[_A,,,A,,] | [A,,,G,,]4 | z A, A,A, | %36
 z F, E,E, | (F,G, A,B,) | C(C,/>D,/ E,)C, | z F,, F,,F,, | z F,, E,,E,, | F,,F,, A,,A,, | %42
 C,C, D,D, | E,2 z E, | F,F, G,G, | (E,E,/>G,/ C2) | z C, B,,2 | z _B,, A,,2 | z A,, G,,F,, | %49
 G,,E,, (A,,^C,) | D,D, E,E, | F,2 z F, | G,G, A,A, | D,(F,/>E,/) F,D, | G,G, G,,G,, | C,C, C,C, | %56
 F,F, F,,F,, | B,,B,, B,,B,, | E,E, E,E, | E,E, E,E, | z !tenuto!^F, !tenuto!F,!tenuto!F, | %61
 E,2 z D, | ^C,C, A,,A,, | D,,D, D,D, | C,C, B,,B,, | E,,E, z (E,/>D,/) | C,C, ^D,D, | E,E, z G,, | %68
 A,,A,, A,,A,, | B,,B,, B,,B,, | B,,B,, (B,,^A,,) | B,,B,, B,,B,, | B,,B,, B,,^A,, | %73
 B,,B,/>C/ B,/>A,/G,/>^F,/ | E,E, ^F,F, | G,2 z G, | A,A, B,B, | (E,G,/>B,/) E2 | z E ^D2 | %79
 z D ^C2 | z ((C C/>))C/B,/>A,/ | ^G,E, ^F,G, | A,A, A,A, | A,2 z C, | D,D, E,E, | %85
 (A,,C,/>E,/) A,2 | z A, ^G,2 | z G, ^F,2 | z F, E,2 | z (A,/>^C,/) D,2 | z (_B,/>D,/) E,2 | %91
 z (^C/>E,/) F,2 | z F, F,F, | E,E, E,E, | E,E, (E,^D,) | E,E,, E,,E,, | E,,E,, E,,E,, | F,,4 | %98
 F,,/(C,/[F,,F,]/C,/ F,,)[F,,,F,,] | [E,,,E,,]4 | z !tenuto!D, !tenuto!D,!tenuto!D, | z (D, C,)C, | %102
 (B,,E,) (E,,E,) | A,,(A,,/>B,,/) C,A,, | (D,C,) (C,B,,) | B,,B,, (D,C,) | D,D, (E,E,,) | %107
 F,,!tenuto!F, !tenuto!E,!tenuto!^D, | E,2 !fermata![E,,E,]2 | !fermata![A,,,A,,]2 z2 |] %110

